dist/img/icons/edit.svg

<svg width="30" height="30" viewBox="0 0 30 30" fill="none" xmlns="http://www.w3.org/2000/svg">
<path d="M29.625 15C29.625 23.0772 23.0772 29.625 15 29.625C6.92284 29.625 0.375 23.0772 0.375 15C0.375 6.92284 6.92284 0.375 15 0.375C23.0772 0.375 29.625 6.92284 29.625 15Z" fill="white" stroke="#7E20C8" stroke-width="0.75"/>
<path fill-rule="evenodd" clip-rule="evenodd" d="M22.6941 8.7638L21.3334 7.39635C20.8075 6.86788 19.9535 6.86788 19.4258 7.39635L18.1223 8.70623L21.1737 11.7725L22.6941 10.2446C23.102 9.8347 23.102 9.17368 22.6941 8.7638ZM17.3273 9.50324L20.3786 12.5695L12.6548 20.3311L9.60522 17.2649L17.3273 9.50324ZM8.42854 21.9898C8.1786 22.0509 7.95296 21.8259 8.00849 21.5747L8.77914 18.0951L11.8287 21.1614L8.42854 21.9898Z" fill="#7E20C8"/>
</svg>

<svg width="30" height="30" viewBox="0 0 30 30" fill="none" xmlns="http://www.w3.org/2000/svg"><path d="M29.625 15c0 8.077-6.548 14.625-14.625 14.625S.375 23.077.375 15 6.923.375 15 .375 29.625 6.923 29.625 15z" fill="#fff" stroke="#7E20C8" stroke-width=".75"/><path fill-rule="evenodd" clip-rule="evenodd" d="M22.694 8.764l-1.36-1.368a1.346 1.346 0 0 0-1.908 0l-1.304 1.31 3.052 3.067 1.52-1.528c.408-.41.408-1.071 0-1.481zm-5.367.74l3.052 3.066-7.724 7.761-3.05-3.066 7.722-7.762zM8.43 21.99a.348.348 0 0 1-.42-.415l.77-3.48 3.05 3.066-3.4.829z" fill="#7E20C8"/></svg>
